symbols/web/developer_mode/materialsymbolsrounded/developer_mode_wght300gradN25_20px.svg

<svg xmlns="http://www.w3.org/2000/svg" height="20" width="20"><path d="M5.958 16.208v.875q0 .105.073.177.073.073.198.073h7.542q.125 0 .198-.073.073-.072.073-.177v-.875Zm0-12.416h8.084v-.875q0-.105-.073-.177-.073-.073-.198-.073H6.229q-.125 0-.198.073-.073.072-.073.177Zm-1.25 2.125v-3q0-.625.448-1.063.448-.437 1.073-.437h7.542q.625 0 1.073.437.448.438.448 1.063v3h-1.25v-.875H5.958v.875Zm1.521 12.666q-.625 0-1.073-.437-.448-.438-.448-1.063v-3h1.25v.875h8.084v-.875h1.25v3q0 .625-.448 1.063-.448.437-1.073.437Zm6.042-5.541q-.188-.188-.167-.459.021-.271.188-.437L14.438 10l-2.146-2.167q-.188-.166-.198-.427-.011-.26.177-.448.187-.208.458-.198.271.011.459.219l2.5 2.479q.104.125.177.261.073.135.073.281 0 .146-.073.292t-.177.25l-2.521 2.5q-.167.208-.427.208-.261 0-.469-.208Zm-5.459-.021-2.5-2.479q-.104-.125-.177-.261-.073-.135-.073-.281 0-.146.073-.281.073-.136.177-.261l2.521-2.5Q7 6.75 7.26 6.75q.261 0 .469.208.188.188.167.459-.021.271-.188.437L5.562 10l2.167 2.167q.167.166.177.427.011.26-.177.448-.187.208-.458.198-.271-.011-.459-.219Zm-.854 4.312v-1.125 1.125Zm0-14.666v1.125-1.125Z"/></svg>

<svg xmlns="http://www.w3.org/2000/svg" height="20" width="20"><path d="M5.958 16.208V17.083Q5.958 17.188 6.031 17.26Q6.104 17.333 6.229 17.333H13.771Q13.896 17.333 13.969 17.26Q14.042 17.188 14.042 17.083V16.208ZM5.958 3.792H14.042V2.917Q14.042 2.812 13.969 2.74Q13.896 2.667 13.771 2.667H6.229Q6.104 2.667 6.031 2.74Q5.958 2.812 5.958 2.917ZM4.708 5.917V2.917Q4.708 2.292 5.156 1.854Q5.604 1.417 6.229 1.417H13.771Q14.396 1.417 14.844 1.854Q15.292 2.292 15.292 2.917V5.917H14.042V5.042H5.958V5.917ZM6.229 18.583Q5.604 18.583 5.156 18.146Q4.708 17.708 4.708 17.083V14.083H5.958V14.958H14.042V14.083H15.292V17.083Q15.292 17.708 14.844 18.146Q14.396 18.583 13.771 18.583ZM12.271 13.042Q12.083 12.854 12.104 12.583Q12.125 12.312 12.292 12.146L14.438 10L12.292 7.833Q12.104 7.667 12.094 7.406Q12.083 7.146 12.271 6.958Q12.458 6.75 12.729 6.76Q13 6.771 13.188 6.979L15.688 9.458Q15.792 9.583 15.865 9.719Q15.938 9.854 15.938 10Q15.938 10.146 15.865 10.292Q15.792 10.438 15.688 10.542L13.167 13.042Q13 13.25 12.74 13.25Q12.479 13.25 12.271 13.042ZM6.812 13.021 4.312 10.542Q4.208 10.417 4.135 10.281Q4.062 10.146 4.062 10Q4.062 9.854 4.135 9.719Q4.208 9.583 4.312 9.458L6.833 6.958Q7 6.75 7.26 6.75Q7.521 6.75 7.729 6.958Q7.917 7.146 7.896 7.417Q7.875 7.688 7.708 7.854L5.562 10L7.729 12.167Q7.896 12.333 7.906 12.594Q7.917 12.854 7.729 13.042Q7.542 13.25 7.271 13.24Q7 13.229 6.812 13.021ZM5.958 17.333Q5.958 17.333 5.958 17.26Q5.958 17.188 5.958 17.083V16.208V17.083Q5.958 17.188 5.958 17.26Q5.958 17.333 5.958 17.333ZM5.958 2.667Q5.958 2.667 5.958 2.74Q5.958 2.812 5.958 2.917V3.792V2.917Q5.958 2.812 5.958 2.74Q5.958 2.667 5.958 2.667Z"/></svg>
